!!!OTL: 771. Frieden.
!!!COM: K. Kloss
!!!ARE: Europa, Mitteleuropa, Deutschland
!!!SCT: B0771
!!!TXL: @@DE
!!!YEM: Copyright 1995, estate of Helmut Schaffrath.
**kern	**text
*ICvox	*
*Ivox	*
*clefG2	*
*M4/4	*
*met(c)	*
*k[b-]	*
*F:	*
!LO:TX:a:t=Sahr langſam.	!
{4a	Da
=1	=1
2a	un-
4a	-ten
4a	iſt
=2	=2
2b-	Frie-
4a}	-den
{4a	im
=3	=3
2g	dun-
2f	-keln
=4	=4
(2a	Haus
4g)}	.
{4g	da
=5	=5
2a	ſchlummert
4a	.
4a	der
=6	=6
(4cc	Mü-
4b-)	.
4a}	-de,
{4f	da
=7	=7
2d	ruht
2e	er
=8	=8
2f;	aus,
4r}	.
{4cc	und
=9	=9
2cc	ſchlief
4cc#	er
4cc#	im
=10	=10
2dd	Schlummer
4ff}	.
{4dd	des
=11	=11
2a	A-
2cc#	-bends
=12	=12
2.dd;}	ein,
{4cc	es
=13	=13
2cc	win-
4b-	-ket
4a	ihm
=14	=14
2g	nim-
4a-}	-mer
{4f	der
=15	=15
2an	frü-
2g	-he
=16	=16
2.f;}	Schein.
==	==
!!!AGN: Trost -, Tageszeiten - Lied, Abend, religioes
!!!GTL: Religioese Lieder
!!!ONB: ESAC (Essen Associative Code) Database: BOEHME
!!!AMT: simple quadruple
!!!AIN: vox
!!!EED: Helmut Schaffrath
!!!EEV: 1.0
!!@@COMMENT:"Gedicht von K. Sauppe, Kreisgerichtsrath in Zeitz, um 1840. Fuer Maennerchor von K. Kloss komponirt."
!!@@END:
!!!Text: K. Sauppe
!!!URL-scan: https://archive.org/details/BoehmeVtLieder1895/page/n615/mode/2up
!!!ENC: Anna Maria Matuszewska
!!!EEV: 2024/19/07
*-	*-
